X:1
T:March of the Three Kings
T:March of the Three Kings
T:Georges Bizet 1872, harm. Scott Wederbaugh 2017
T:Old Provençal Carol 
T:Public Domain Courtesy of the Cyber Hymnal™
T:Public Domain Courtesy of the Cyber Hymnal™
C:Georges Bizet 1872, harm. Scott Wederbaugh 2017
Z:Public Domain
Z:Courtesy of the Cyber Hymnal™
%%score ( 1 2 ) ( 3 4 )
L:1/8
Q:1/4=100
M:4/4
K:C
V:1 treble 
V:2 treble 
V:3 bass 
V:4 bass 
V:1
 [EA]2 [CE]2 | [EA]3 [EB] [Ec]>[EB] [Ec]>[EA] | [Ge]3 z/ [Ec]/ [Fd]2 [Ge]2 | %3
w: 1.~This high-|way be- held at break of|day Three east- ern|
w: 2.~Wonder- ing|then, I watched the might- y|men, I stood a-|
w: 3.~Gas- pard|old had brought a gift of|gold. He said, “My|
w: 4.~“You will|die; for You, my Lord, I|cry,” Wept Bal- tha-|
 [Af][Ge][Fd][Ec] [DB]2 [Ge]2 | ([Fd][Ec]) (Bc) [EA]2 [CE]2 | [EA]3 [EB] [Ec]>[EB] [Ec]>[EA] | %6
w: kings go by up- on their|jour- * ney. * This high-|way be- held at break of|
w: mazed as all the knights were|pass- * ing. * Won- dering|then, I watched the might- y|
w: Lord, Thou art the King of|Glo- * ry.” * Gas- pard|old gave Christ his gift of|
w: zar, his gifts of myrrh pre-|sent- * ing. * “You will|die, and in a tomb will|
 [Ge]3 z/ [Ec]/ [Fd]2 [Ge]2 | [Af][Ge][Fd][Ec] [Ec]2 [DB]2 | [CA]3 z/ [DB]/ [DB]2 [DB]2 | %9
w: day Three east- ern|kings go by in rich ar-|ray. With cour- age|
w: men, And as they|passed I fol- lowed them a-|gain. They jour- neyed|
w: gold, And that this|Child would con- quer death, he|told. Then in- cense|
w: lie, For on a|cross you will be lift- ed|high.” All we to-|
 [Ec]2 [DB]>[EA] [DB]2 [Ec]2 | [Fd]3 z/ [EB]/ [Fd]2 [Ge]2 | [EA]2 [EB][Ec] [Fd][Ec][DB][CA] | %12
w: high all their guards passed|by, Their knights- at-|arms with the squir- es and the|
w: far to the guid- ing|star That shone where|Je- sus was ly- ing in a|
w: sweet at the Christ Child’s|feet King Mel- chior|placed, say- ing, “Thou art God of|
w: day to the Child must|pray, Who came to|earth with His gifts of peace and|
 ([CA][E^G]) [CE] z/ [DB]/ [DB]2 [DB]2 | [Ec]2 [DB]>[CA] [DB]2 [Ec]2 | [Fd]3 z/ [EB]/ [Fd]2 [Ge]2 | %15
w: pa- * ges. With cour- age|high all their guards passed|by, With gild- ed|
w: man- * ger. And far a-|way where the Christ Child|lay They found the|
w: arm- * ies. Al- though He|lies here in hum- ble|guise, This lit- tle|
w: bless- * ing, To Him we|pray, and our hom- age|pay And with the|
 [Af][Ge][Fd][Ec] [Ec]2 [DB]2 | [CA]4 |] %17
w: ar- mor shin- ing like the|sky.|
w: shep- herds come to watch and|pray.|
w: Child is God of earth and|skies.”|
w: kings we march a- long the|way.|
V:2
 x4 | x8 | x8 | x8 | x2 E2 x4 | x8 | x8 | x8 | x8 | x8 | x8 | x8 | x8 | x8 | x8 | x8 | x4 |] %17
V:3
 [A,C]2 [A,,A,]2 | [C,A,]3 [G,B,] [E,A,]>[E,G,] [E,A,]>[C,A,] | %2
 [C,G,]3 z/ [E,A,]/ [G,B,]2 [C,G,]2 | [D,A,][C,G,][D,A,][C,G,] [G,,G,]2 [E,B,]2 | %4
 ([D,A,][E,A,]) (B,C) [A,C]2 [C,G,]2 | [C,A,]3 [E,G,] [E,A,]>[E,G,] [E,A,]>[C,E,] | %6
 [C,G,]3 z/ [E,A,]/ [D,A,]2 [E,G,]2 | [F,A,][E,G,][D,A,][C,G,] [C,G,]2 [G,,G,]2 | %8
 [A,,E,]3 z/ [G,,G,]/ [G,,G,]2 [G,,G,]2 | [A,,E,]2 [G,,G,]>[C,A,] [G,,G,]2 [C,G,]2 | %10
 [D,A,]3 z/ [E,G,]/ [D,A,]2 [E,B,]2 | [A,C]2 [E,G,][E,A,] [D,A,][E,A,][D,G,][E,A,] | %12
 (A,^G,) [E,A,] z/ [D,=G,]/ [G,,G,]2 [G,,G,]2 | [A,,A,]2 [G,,G,]>[E,A,] [G,,G,]2 [A,,A,]2 | %14
 [D,A,]3 z/ [E,G,]/ [A,,A,]2 [C,G,]2 | [D,A,][C,G,][D,A,][C,A,] [A,,A,]2 [G,,G,]2 | [A,,E,]4 |] %17
V:4
 x4 | x8 | x8 | x8 | x2 G,2 x4 | x8 | x8 | x8 | x8 | x8 | x8 | x8 | E,3 x5 | x8 | x8 | x8 | x4 |] %17

